src/components/Icon/utils/svgsOptimized/heading-2.svg

<svg width="24" height="24" viewBox="0 0 24 24"  xmlns="http://www.w3.org/2000/svg">
<path d="M11.82 6H12.62C12.81 6 12.97 6.16 12.97 6.35V17.65C12.97 17.84 12.81 18 12.62 18H11.82C11.63 18 11.47 17.84 11.47 17.65V12.6H7.26999V17.65C7.26999 17.84 7.10999 18 6.91999 18H6.11999C5.92999 18 5.76999 17.84 5.76999 17.65V6.35C5.76999 6.16 5.92999 6 6.11999 6H6.91999C7.10999 6 7.26999 6.16 7.26999 6.35V11.4H11.47V6.35C11.47 6.16 11.63 6 11.82 6Z" />
<path d="M19.38 11.76C19.38 13.96 18.08 15.72 17.01 16.8H19.11C19.3 16.8 19.45 16.95 19.45 17.14V17.66C19.45 17.85 19.3 18 19.11 18H15.32C14.68 18 14.42 17.17 14.95 16.8C15.36 16.5 18.03 14.46 18.03 11.75C18.03 11.07 17.52 10.56 16.9 10.67C16.43 10.76 16.11 11.19 16.11 11.67V11.96C16.11 12.15 15.96 12.3 15.77 12.3H15.1C14.91 12.3 14.76 12.15 14.76 11.96V11.71C14.76 10.46 15.72 9.36999 16.97 9.31999C18.31 9.25999 19.38 10.35 19.38 11.76Z" />
</svg>

<?xml version="1.0" encoding="utf-8"?><svg width="24" height="24" xmlns="http://www.w3.org/2000/svg" viewBox="0 0 24 24"><path d="M11.82 6h.8c.19 0 .35.16.35.35v11.3c0 .19-.16.35-.35.35h-.8c-.19 0-.35-.16-.35-.35V12.6h-4.2v5.05c0 .19-.16.35-.35.35h-.8c-.19 0-.35-.16-.35-.35V6.35c0-.19.16-.35.35-.35h.8c.19 0 .35.16.35.35v5.05h4.2V6.35c0-.19.16-.35.35-.35Zm7.56 5.76c0 2.2-1.3 3.96-2.37 5.04h2.1c.19 0 .34.15.34.34v.52c0 .19-.15.34-.34.34h-3.79c-.64 0-.9-.83-.37-1.2.41-.3 3.08-2.34 3.08-5.05 0-.68-.51-1.19-1.13-1.08-.47.09-.79.52-.79 1v.29c0 .19-.15.34-.34.34h-.67c-.19 0-.34-.15-.34-.34v-.25c0-1.25.96-2.34 2.21-2.39 1.34-.06 2.41 1.03 2.41 2.44Z"/></svg>
